Papirus-GTK/48x48/apps/kanatest.svg

<svg height="48" width="48" xmlns="http://www.w3.org/2000/svg"><rect fill="#e9a84a" height="40" rx="2" transform="matrix(0 -1 -1 0 0 0)" width="40" x="-44" y="-44"/><path d="m6 4c-1.108 0-2 .892-2 2v1c0-1.108.892-2 2-2h36c1.108 0 2 .892 2 2v-1c0-1.108-.892-2-2-2z" fill="#fff" opacity=".2"/><path d="m6 44c-1.108 0-2-.892-2-2v-1c0 1.108.892 2 2 2h36c1.108 0 2-.892 2-2v1c0 1.108-.892 2-2 2z" opacity=".3"/><path d="m22.900391 7.9746094a2.0002 2.0002 0 0 0 -1.832032 1.5097656c0 0-.608972 2.277833-1.210937 5.564453-.137313-.161275-.353627-.410136-.498047-.68164-.292486-.549864-.482422-1.060547-.482422-1.060547a2.0002 2.0002 0 0 0 -1.824219-1.332032 2.0002 2.0002 0 0 0 -1.929687 2.71875c0 0 .268626.73027.705078 1.550782.436452.820512.843883 1.860102 2.308594 2.560547.351146.167922.708739.298104 1.070312.40625-.129065.990264-.246411 2.002154-.333984 3.042968-.03217.382291-.015986.774319-.041016 1.160156-.927725.198445-1.87201.365829-2.730469.69336-2.559644.97659-4.838684 2.594678-5.933593 5.089844-.4875181 1.110993-.3541995 2.337621.041015 3.269531.395215.93191 1.009007 1.673034 1.707032 2.306641 1.396054 1.267212 3.096217 2.190474 5.046875 2.226562 1.307379.02419 2.506454-.365384 3.65039-.914062.809732 1.540663 1.875094 2.88906 3.488281 3.701171 3.031169 1.52595 6.517955.438476 9.320313-1.273437 1.401179-.855956 2.649936-1.932352 3.541016-3.259766.891079-1.327414 1.43384-3.042849.96875-4.773437-.71302-2.653127-2.796287-4.532453-5.22461-5.72461-.274326-.134677-.601652-.186884-.886719-.30664.410206-.650066.908204-1.44336.908204-1.44336a2.0002 2.0002 0 1 0 -3.457032-2.011718c0 0-1.168067 1.590251-1.595703 2.261718-1.046791-.180809-2.097252-.363973-3.173828-.404297-.554803-.020779-1.100034.067925-1.654297.083985.009-.116169.001999-.229756.011719-.345703.088433-1.051028.211803-2.075068.345703-3.076172 1.006342-.093592 1.991999-.275233 2.917969-.453125 2.485335-.477468 4.515625-1.166016 4.515625-1.166016a2.0002 2.0002 0 1 0 -1.277344-3.789062c0 0-1.807904.605759-3.992187 1.02539-.485713.093313-.991683.158559-1.492188.210938.537681-2.849881 1.054688-4.826172 1.054688-4.826172a2.0002 2.0002 0 0 0 -2.03125-2.5410156zm1.451171 18.8749996c.248479.0093.477578.07523.72461.09375-.129198.160713-.09524.163312-.228516.324219-.602921.727932-1.295076 1.270179-1.953125 1.941406-.07003-.75649-.17435-1.461517-.185547-2.273437.551442-.02468 1.088212-.106699 1.642578-.085938zm-5.638671.697266c.04524 1.613688.182498 3.205779.490234 4.705078.0025.01237.009199.022786.011719.035156-.831556.431583-1.604833.72349-2.177735.712891-.406002-.0075-1.679985-.505213-2.43164-1.1875-.375828-.341144-.629548-.707075-.714844-.908203-.0853-.201128-.044644-.133356-.058594-.101563.513806-1.170901 1.777998-2.227464 3.695313-2.958984.353132-.134732.798411-.188149 1.185547-.296875zm10.691406.273437c.517135.175246 1.093028.306416 1.539062.525391 1.763811.865922 2.798961 1.960644 3.125 3.173828.0989.368015.03333.821932-.425781 1.50586-.459113.683927-1.302069 1.460542-2.30664 2.074218-2.009146 1.227352-4.586692 1.541596-5.4375 1.113282-.824482-.415061-1.441739-1.318404-1.958985-2.451172 1.431971-1.215482 2.825555-2.537597 3.988281-3.941407.603488-.728615.961918-1.305747 1.476563-2z" fill-rule="evenodd" opacity=".4" overflow="visible" transform=""/></svg>

<?xml version="1.0" encoding="UTF-8" standalone="no"?>
<!-- Created with Inkscape (http://www.inkscape.org/) -->

<svg
   xmlns:dc="http://purl.org/dc/elements/1.1/"
   xmlns:cc="http://creativecommons.org/ns#"
   xmlns:rdf="http://www.w3.org/1999/02/22-rdf-syntax-ns#"
   xmlns:svg="http://www.w3.org/2000/svg"
   xmlns="http://www.w3.org/2000/svg"
   xmlns:sodipodi="http://sodipodi.sourceforge.net/DTD/sodipodi-0.dtd"
   xmlns:inkscape="http://www.inkscape.org/namespaces/inkscape"
   id="svg2817"
   height="48"
   width="48"
   version="1.0"
   inkscape:version="0.91 r13725"
   sodipodi:docname="kanatest.svg">
  <sodipodi:namedview
     pagecolor="#ffffff"
     bordercolor="#666666"
     borderopacity="1"
     objecttolerance="10"
     gridtolerance="10"
     guidetolerance="10"
     inkscape:pageopacity="0"
     inkscape:pageshadow="2"
     inkscape:window-width="1600"
     inkscape:window-height="849"
     id="namedview21"
     showgrid="false"
     inkscape:zoom="8.08"
     inkscape:cx="33.685644"
     inkscape:cy="24"
     inkscape:window-x="0"
     inkscape:window-y="0"
     inkscape:window-maximized="1"
     inkscape:current-layer="svg2817" />
  <metadata
     id="metadata57">
    <rdf:RDF>
      <cc:Work
         rdf:about="">
        <dc:format>image/svg+xml</dc:format>
        <dc:type
           rdf:resource="http://purl.org/dc/dcmitype/StillImage" />
        <dc:title />
      </cc:Work>
    </rdf:RDF>
  </metadata>
  <defs
     id="defs2819" />
  <rect
     style="fill:#e9a84a"
     id="rect4203"
     transform="matrix(0,-1,-1,0,0,0)"
     rx="2"
     ry="2"
     height="40"
     width="40"
     y="-44"
     x="-44" />
  <path
     style="opacity:0.2;fill:#ffffff"
     inkscape:connector-curvature="0"
     id="rect4592"
     d="M 6,4 C 4.892,4 4,4.892 4,6 L 4,7 C 4,5.892 4.892,5 6,5 l 36,0 c 1.108,0 2,0.892 2,2 L 44,6 C 44,4.892 43.108,4 42,4 L 6,4 Z" />
  <path
     style="opacity:0.3"
     inkscape:connector-curvature="0"
     id="path4597"
     d="M 6,44 C 4.892,44 4,43.108 4,42 l 0,-1 c 0,1.108 0.892,2 2,2 l 36,0 c 1.108,0 2,-0.892 2,-2 l 0,1 c 0,1.108 -0.892,2 -2,2 L 6,44 Z" />
  <g
     id="g4163"
     transform="translate(2.0001744,0)"
     style="opacity:0.4">
    <path
       style="color:#000000;font-style:normal;font-variant:normal;font-weight:normal;font-stretch:normal;font-size:medium;line-height:normal;font-family:sans-serif;text-indent:0;text-align:start;text-decoration:none;text-decoration-line:none;text-decoration-style:solid;text-decoration-color:#000000;letter-spacing:normal;word-spacing:normal;text-transform:none;direction:ltr;block-progression:tb;writing-mode:lr-tb;baseline-shift:baseline;text-anchor:start;white-space:normal;clip-rule:nonzero;display:inline;overflow:visible;visibility:visible;opacity:1;isolation:auto;mix-blend-mode:normal;color-interpolation:sRGB;color-interpolation-filters:linearRGB;solid-color:#000000;solid-opacity:1;fill:#000000;fill-opacity:1;fill-rule:evenodd;stroke:none;stroke-width:4;stroke-linecap:round;stroke-linejoin:round;stroke-miterlimit:4;stroke-dasharray:none;stroke-dashoffset:0;stroke-opacity:1;color-rendering:auto;image-rendering:auto;shape-rendering:auto;text-rendering:auto;enable-background:accumulate"
       d="M 22.900391 7.9746094 A 2.0002 2.0002 0 0 0 21.068359 9.484375 C 21.068359 9.484375 20.459387 11.762208 19.857422 15.048828 C 19.720109 14.887553 19.503795 14.638692 19.359375 14.367188 C 19.066889 13.817324 18.876953 13.306641 18.876953 13.306641 A 2.0002 2.0002 0 0 0 17.052734 11.974609 A 2.0002 2.0002 0 0 0 15.123047 14.693359 C 15.123047 14.693359 15.391673 15.423629 15.828125 16.244141 C 16.264577 17.064653 16.672008 18.104243 18.136719 18.804688 C 18.487865 18.97261 18.845458 19.102792 19.207031 19.210938 C 19.077966 20.201202 18.96062 21.213092 18.873047 22.253906 C 18.840877 22.636197 18.857061 23.028225 18.832031 23.414062 C 17.904306 23.612507 16.960021 23.779891 16.101562 24.107422 C 13.541918 25.084012 11.262878 26.7021 10.167969 29.197266 C 9.6804509 30.308259 9.8137695 31.534887 10.208984 32.466797 C 10.604199 33.398707 11.217991 34.139831 11.916016 34.773438 C 13.31207 36.04065 15.012233 36.963912 16.962891 37 C 18.27027 37.02419 19.469345 36.634616 20.613281 36.085938 C 21.423013 37.626601 22.488375 38.974998 24.101562 39.787109 C 27.132731 41.313059 30.619517 40.225585 33.421875 38.513672 C 34.823054 37.657716 36.071811 36.58132 36.962891 35.253906 C 37.85397 33.926492 38.396731 32.211057 37.931641 30.480469 C 37.218621 27.827342 35.135354 25.948016 32.707031 24.755859 C 32.432705 24.621182 32.105379 24.568975 31.820312 24.449219 C 32.230518 23.799153 32.728516 23.005859 32.728516 23.005859 A 2.0002 2.0002 0 1 0 29.271484 20.994141 C 29.271484 20.994141 28.103417 22.584392 27.675781 23.255859 C 26.62899 23.07505 25.578529 22.891886 24.501953 22.851562 C 23.94715 22.830783 23.401919 22.919487 22.847656 22.935547 C 22.856656 22.819378 22.849655 22.705791 22.859375 22.589844 C 22.947808 21.538816 23.071178 20.514776 23.205078 19.513672 C 24.21142 19.42008 25.197077 19.238439 26.123047 19.060547 C 28.608382 18.583079 30.638672 17.894531 30.638672 17.894531 A 2.0002 2.0002 0 1 0 29.361328 14.105469 C 29.361328 14.105469 27.553424 14.711228 25.369141 15.130859 C 24.883428 15.224172 24.377458 15.289418 23.876953 15.341797 C 24.414634 12.491916 24.931641 10.515625 24.931641 10.515625 A 2.0002 2.0002 0 0 0 22.900391 7.9746094 z M 24.351562 26.849609 C 24.600041 26.858909 24.82914 26.924839 25.076172 26.943359 C 24.946974 27.104072 24.980932 27.106671 24.847656 27.267578 C 24.244735 27.99551 23.55258 28.537757 22.894531 29.208984 C 22.824501 28.452494 22.720181 27.747467 22.708984 26.935547 C 23.260426 26.910867 23.797196 26.828848 24.351562 26.849609 z M 18.712891 27.546875 C 18.758131 29.160563 18.895389 30.752654 19.203125 32.251953 C 19.205625 32.264323 19.212324 32.274739 19.214844 32.287109 C 18.383288 32.718692 17.610011 33.010599 17.037109 33 C 16.631107 32.9925 15.357124 32.494787 14.605469 31.8125 C 14.229641 31.471356 13.975921 31.105425 13.890625 30.904297 C 13.805325 30.703169 13.845981 30.770941 13.832031 30.802734 C 14.345837 29.631833 15.610029 28.57527 17.527344 27.84375 C 17.880476 27.709018 18.325755 27.655601 18.712891 27.546875 z M 29.404297 27.820312 C 29.921432 27.995558 30.497325 28.126728 30.943359 28.345703 C 32.70717 29.211625 33.74232 30.306347 34.068359 31.519531 C 34.167259 31.887546 34.101689 32.341463 33.642578 33.025391 C 33.183465 33.709318 32.340509 34.485933 31.335938 35.099609 C 29.326792 36.326961 26.749246 36.641205 25.898438 36.212891 C 25.073956 35.79783 24.456699 34.894487 23.939453 33.761719 C 25.371424 32.546237 26.765008 31.224122 27.927734 29.820312 C 28.531222 29.091697 28.889652 28.514565 29.404297 27.820312 z "
       transform="translate(-2.0001744,0)"
       id="path4159" />
  </g>
</svg>
